brandFactory_export/3.Masa/Data security_Seguridad de datos_3Masa.svg

<?xml version="1.0" encoding="UTF-8"?>
<svg width="24px" height="24px" viewBox="0 0 24 24" version="1.1" xmlns="http://www.w3.org/2000/svg" xmlns:xlink="http://www.w3.org/1999/xlink">
    <title>3.Masa/Data security_Seguridad de datos_3Masa</title>
    <g id="Symbols" stroke="none" stroke-width="1" fill="none" fill-rule="evenodd">
        <g id="3.Masa/Data-security_Seguridad-de-datos_3Masa" fill="#5CB615" fill-rule="nonzero">
            <path d="M6.41008403,17.4756303 C7.51596639,17.4554622 7.51596639,16.7226891 7.51596639,16.3697479 C7.51596639,16.0168067 7.51596639,15.2773109 6.39327731,15.2504202 L6.19831933,15.2504202 C5.12268908,15.2605042 5.12268908,15.9697479 5.12268908,16.3563025 C5.12268908,16.7428571 5.12268908,17.4621849 6.21848739,17.4756303 L6.41008403,17.4756303 L6.41008403,17.4756303 Z M6.42689076,13.8991597 C6.92773109,13.9092437 8.88403361,14.1008403 8.88403361,16.3697479 C8.88403361,18.6453782 6.92773109,18.8201681 6.43697479,18.8302521 L6.20168067,18.8302521 C5.68739496,18.8235294 3.75798319,18.6453782 3.75798319,16.3563025 C3.75798319,14.0705882 5.67058824,13.902521 6.18487395,13.8957983 L6.23865546,13.8957983 C6.30252101,13.8957983 6.3697479,13.8991597 6.42689076,13.8991597 L6.42689076,13.8991597 Z M9.30756303,4.01344538 C7.81848739,3.59327731 6.91092437,3.02184874 6.67226891,2.36638655 C6.67226891,2.35630252 6.67226891,2.35630252 6.66218487,2.34621849 C6.90084034,1.6907563 7.80840336,1.10588235 9.28739496,0.68907563 C10.8571429,0.245378151 12.9310924,0 15.1327731,0 C17.3344538,0 19.4084034,0.245378151 20.9647059,0.68907563 C22.5243697,1.13277311 23.405042,1.71092437 23.6,2.4 C23.6,2.4 23.589916,2.41008403 23.589916,2.42016807 C23.3277311,3.05546218 22.4336134,3.60336134 20.9781513,4.01344538 C19.4084034,4.45714286 17.3445378,4.70255464 15.1462185,4.70255464 C12.9411765,4.70588235 10.8773109,4.45714286 9.30756303,4.01344538 Z M9.41176471,10.6588235 L9.41176471,9.95630252 C9.41176471,7.38151261 7.45210084,7.05546218 6.60840336,7.03529412 L6.58823529,7.03529412 L6.28235294,7.03193277 C5.25714286,7.04201681 3.53277311,7.43193277 3.53277311,9.93277311 L3.53277311,10.6621849 L9.41176471,10.6588235 Z M1.77142857,20.4638655 C1.97647059,20.6789916 2.31596639,20.7865546 2.78655462,20.7865546 L10.1512605,20.7831933 C10.3663866,20.7966387 10.8705882,20.7563025 11.1630252,20.4806723 C11.3546218,20.2991597 11.4487395,20.0235294 11.4487395,19.6369748 C11.4453782,17.5327731 11.4487395,13.2537815 11.4487395,13.2537815 C11.4521008,13.1966387 11.4756303,12.7394958 11.189916,12.4403361 C10.9815126,12.2218487 10.6352941,12.1142857 10.1512605,12.1142857 L6.59159664,12.1176471 L2.80336134,12.1210084 L2.77983193,12.1210084 C2.74621849,12.1210084 2.71260504,12.1176471 2.66218487,12.1176471 C2.4605042,12.1176471 2.04033613,12.1680672 1.78823529,12.4033613 C1.59327731,12.5815126 1.50252101,12.8605042 1.50252101,13.2504202 L1.50252101,19.6504202 C1.49915966,19.7008403 1.48235294,20.1613445 1.77142857,20.4638655 L1.77142857,20.4638655 Z M15.1428571,11.0218487 C13.610084,11.0218487 12.1579832,10.9008403 10.8806723,10.6823529 L10.8806723,10.7327731 C11.4521008,10.8436975 11.9226891,11.0823529 12.2789916,11.4655462 C12.4336134,11.6302521 12.5445378,11.8084034 12.6319328,11.9798319 C13.4420168,12.0504202 14.2789916,12.097479 15.1428571,12.097479 C17.4554622,12.097479 19.6470588,11.8386555 21.307563,11.3647059 C22.2487395,11.1058824 23.0487395,10.7394958 23.6571429,10.2991597 L23.6571429,15.0789916 C23.3714286,15.5865546 22.5210084,16.2521008 20.9747899,16.6957983 C19.4151261,17.1361345 17.3411765,17.3848739 15.1394958,17.3848739 C14.3663866,17.3848739 13.6268908,17.3411765 12.9109244,17.2806723 L12.9109244,18.3630252 C13.6336134,18.4201681 14.3731092,18.4605042 15.1394958,18.4605042 C17.4521008,18.4605042 19.6436975,18.2016807 21.3042017,17.7277311 C22.2453782,17.4689076 23.0453782,17.092437 23.6537815,16.6521008 L23.6537815,20.9008403 C23.6537815,21.7411765 22.7495798,22.4302521 20.9579832,22.9344538 C19.3882353,23.3747899 17.3142857,23.6235294 15.1260504,23.6235294 C12.9344538,23.6235294 10.8605042,23.3747899 9.28067227,22.9344538 C8.55798319,22.7294118 7.98991597,22.4941176 7.55630252,22.2352941 L2.77983193,22.2386555 C1.88235294,22.2386555 1.17647059,21.9731092 0.685714286,21.4453782 C-0.0268907563,20.6857143 0.0268907563,19.707563 0.0336134454,19.5966387 L0.0300961866,13.2470588 C0.0300961866,12.2352941 0.447058824,11.6436975 0.796638655,11.3243697 C1.2,10.9579832 1.67394958,10.7932773 2.06722689,10.7159664 L2.06722689,9.93277311 C2.06722689,6.74957983 4.33277311,5.59663866 6.26890756,5.57983193 L6.58823529,5.58319328 L6.58823529,3.96638655 C7.15966387,4.39663866 7.95294118,4.76302521 8.97142857,5.04201681 C10.6453782,5.51596639 12.8336134,5.77478992 15.1361345,5.77478992 C17.4386555,5.77478992 19.6302521,5.51596639 21.3008403,5.04201681 C22.2957983,4.76302521 23.0756303,4.41680672 23.6504202,3.98655462 L23.6504202,8.72268908 C23.3647059,9.2302521 22.5142857,9.89579832 20.9680672,10.3361345 C19.4151261,10.7831933 17.3411765,11.0218487 15.1428571,11.0218487 Z" id="Data-security_Seguridad-de-datos_3Masa"></path>
        </g>
    </g>
</svg>

<svg width="24" height="24" viewBox="0 0 24 24" xmlns="http://www.w3.org/2000/svg"><path d="M6.41 17.476c1.106-.02 1.106-.753 1.106-1.106 0-.353 0-1.093-1.123-1.12h-.195c-1.075.01-1.075.72-1.075 1.106 0 .387 0 1.106 1.095 1.12h.192zm.017-3.577c.5.01 2.457.202 2.457 2.47 0 2.276-1.956 2.451-2.447 2.461h-.235c-.515-.006-2.444-.185-2.444-2.474 0-2.285 1.913-2.453 2.427-2.46h.054c.064 0 .13.003.188.003zm2.88-9.886c-1.489-.42-2.396-.991-2.635-1.647 0-.01 0-.01-.01-.02.239-.655 1.146-1.24 2.625-1.657C10.857.245 12.931 0 15.133 0c2.201 0 4.275.245 5.832.69 1.56.443 2.44 1.02 2.635 1.71 0 0-.01.01-.01.02-.262.635-1.156 1.183-2.612 1.593-1.57.444-3.633.69-5.832.69-2.205.003-4.269-.246-5.838-.69zm.105 6.646v-.703c0-2.574-1.96-2.9-2.804-2.92h-.02l-.306-.004c-1.025.01-2.75.4-2.75 2.9v.73l5.88-.003zm-7.64 9.805c.204.215.544.323 1.015.323l7.364-.004c.215.014.72-.027 1.012-.302.192-.182.286-.457.286-.844-.004-2.104 0-6.383 0-6.383.003-.057.027-.515-.26-.814-.207-.218-.554-.326-1.038-.326l-3.56.004-3.788.003H2.78c-.034 0-.067-.003-.118-.003-.201 0-.622.05-.874.285-.195.179-.285.458-.285.847v6.4c-.004.05-.02.511.268.814zm13.37-9.442c-1.532 0-2.984-.121-4.261-.34v.05c.571.112 1.042.35 1.398.734.155.164.266.342.353.514.81.07 1.647.117 2.51.117 2.313 0 4.505-.258 6.166-.732.94-.26 1.74-.626 2.35-1.066v4.78c-.287.508-1.137 1.173-2.683 1.617-1.56.44-3.634.689-5.836.689-.773 0-1.512-.044-2.228-.104v1.082a28.12 28.12 0 002.228.098c2.313 0 4.505-.26 6.165-.733.941-.26 1.741-.636 2.35-1.076v4.249c0 .84-.904 1.53-2.696 2.033-1.57.44-3.644.69-5.832.69-2.192 0-4.265-.25-5.845-.69-.723-.205-1.291-.44-1.725-.699l-4.776.004c-.898 0-1.604-.266-2.094-.794-.713-.76-.66-1.737-.652-1.848l-.004-6.35c0-1.012.417-1.603.767-1.923.403-.366.877-.53 1.27-.608v-.783c0-3.183 2.266-4.336 4.202-4.353l.32.003V3.966c.57.43 1.364.797 2.382 1.076 1.674.474 3.863.733 6.165.733 2.303 0 4.494-.259 6.165-.733.995-.279 1.775-.625 2.35-1.055v4.736c-.286.507-1.137 1.173-2.683 1.613-1.553.447-3.627.686-5.825.686z" fill="#5CB615" fill-rule="nonzero"/></svg>
